X:1
T:Bedlam
T:Bedlam
L:1/8
M:4/4
K:D
V:1 treble 
V:1
 A2 | F2 D2 F2 A2 | d2 B4 F2 | G2 B2 A2 F2 | E6 A2 | F2 D2 F2 A2 | (dc) B4 (cd) | (e3 d) c2 B2 | %8
w: A-|broad as I was|walk- ing one|morn- ing in the|spring I|heard a maid in|Bed * lam so *|sweet * ly she|
 A6 cd | e3 B (cB) (AG) | F2 B2 B2 A2 | A2 d2 B2 G2 | (F2 E4) A,2 | D3 F E2 C2 | %14
w: sung Her *|chains she rat * tled *|with her hands and|thus she sigh and|sing * I|love my love be|
 (DF) (A!3!B c) d2 G2 | F4 E4 | D6 |] %17
w: cause * I * * know he|?first/just love|me|

